X: 28
T: Calliope House
C: Dave Richardson
Z: Sean Perry
S: https://thesession.org/tunes/15#setting50807
R: jig
M: 6/8
L: 1/8
K: Dmaj
|:dAA fAA|ede fed|ABe ~e2d|efd ~B3|ABA ~A2F|
A2B d2e|1 eff fed|~e3 ABc:|2 ef{g}f edB|d3 dfg||
|:aa/a/a faf|efe def|gg/g/g fgf|edB ~B3|ABA A/B/AF|
A2B d2e|1eff fed|~e3 efg:|2 eff edB|d3 ABc||

